X:1
T:Title
%%score ( 1 2 ) { ( 3 5 ) | 4 }
L:1/8
M:3/4
K:D
V:1 treble nm="Grand Piano"
V:2 treble 
V:3 bass nm="Grand Piano"
V:5 bass 
V:4 bass 
V:1
 z2 z2[Q:1/4=94] D2 | [DF]4 =F^F | [DG]4 [DF]2 | [CF]4 [CE]2 | D4 D2 | [GB]4 ^AB | [Gd]4 [GB]2 | %7
w: Ein~|voll es,~ *|frei es,~|ew' ges~|Heil~ hat~|Je sus~ *|uns~ ge|
 [FA]4 [FB]2 | [EG]4 [EA]2 | z2 z2 .A2 | [DF]4 [CE]2 | [DF]4 [DA]2 | [GB]4 [Ge]2 | %13
w: bracht.~ Mein~|Herz,~ er|fe~|die ses~|Teil~ im~|Wort,~ das~|
 d2- [Ed]2 [Gc]2 | [Fd]4 z2 |] %15
w: se * lig~|macht~|
V:2
 x6 | z2 z2 D2 | x6 | x6 | x6 | z2 z2 G2 | x6 | x6 | x6 | [DF]4 E-[EG] | x6 | x6 | x6 | F2 z2 z2 | %14
 x6 |] %15
V:3
 z2 z2 F,2 | A,4 ^G,A, | B,4 A,2 | A,4 G,2 | F,4[K:treble] D2 | D4 CD | B,4 D2 | D4[K:bass] B,2 | %8
 B,4 z2 | A,2 B,2 B,2 | A,4 A,2 | A,4 D2 | D4 z2 | A,4 A,2 | A,4 z2 |] %15
V:4
 z2 z2 D,2 | D,4 D,2 | D,4 D,2 | A,,4 A,,2 | D,4 F,2 | G,4 G,2 | G,4 G,2 | D,4 ^D,2 | E,2 z2 C,2 | %9
 D,2 B,,2 G,,2 | A,,4 A,,2 | D,4 F,2 | G,2 z2 E,2 | z2 z2 A,,2 | D,4 z2 |] %15
V:5
 x6 | x6 | x6 | x6 | x4[K:treble] x2 | x6 | x6 | x4[K:bass] x2 | z2 D,2 A,2 | x6 | x6 | x6 | %12
 z2 F,2 B,2 | x6 | x6 |] %15

